lib/assets/images/map.svg

<svg width="128" height="113" viewBox="0 0 128 113" fill="none" xmlns="http://www.w3.org/2000/svg">
<path d="M128 112.109H0V32.4203H128V112.109ZM2.97821 109.131H125.022V35.3985H2.97821V109.131Z" fill="#E0E3E9"/>
<path d="M126.511 33.9095H1.48901V110.62H126.511V33.9095Z" fill="white"/>
<path d="M126.511 53.3513V48.6413H109.167V33.9095H104.457V48.6413H73.5808V33.9095H68.8708V48.6413H21.2475V33.9095H16.5375V48.6413H1.48901V53.3513H16.5375V71.668H1.48901V76.378H16.5375V96.003H1.48901V100.713H41.9192V110.62H46.6291V100.713H68.8708V110.62H73.5808V100.713H126.511V96.003H73.5808V76.378H126.511V71.668H109.167V53.3513L126.511 53.3513ZM68.8708 53.3513V59.108H21.2475V53.3513H68.8708ZM21.2475 63.818H68.8708V71.668H21.2475V63.818ZM21.2475 96.003V76.378H41.9192V96.003L21.2475 96.003ZM68.8708 96.003H46.6291V76.378H68.8708V96.003ZM104.457 71.668H73.5808V53.3513H104.457V71.668Z" fill="#EDEFF4"/>
<path d="M93.9481 22.5846C93.9481 35.0578 71.3634 62.8442 71.3634 62.8442C71.3634 62.8442 48.7788 35.0578 48.7788 22.5846C48.7788 16.5948 51.1582 10.8503 55.3937 6.61488C59.6291 2.37945 65.3736 0 71.3634 0C77.3532 0 83.0977 2.37945 87.3332 6.61488C91.5686 10.8503 93.9481 16.5948 93.9481 22.5846Z" fill="#0073E6"/>
<path d="M81.6881 21.6027C81.6881 23.6446 81.0826 25.6408 79.9482 27.3386C78.8137 29.0364 77.2012 30.3597 75.3147 31.1412C73.4282 31.9226 71.3523 32.1271 69.3495 31.7287C67.3468 31.3303 65.5071 30.347 64.0633 28.9031C62.6194 27.4592 61.6361 25.6196 61.2377 23.6169C60.8393 21.6141 61.0438 19.5382 61.8252 17.6517C62.6066 15.7652 63.9299 14.1527 65.6278 13.0182C67.3256 11.8838 69.3217 11.2783 71.3637 11.2783C72.7197 11.2776 74.0625 11.5443 75.3154 12.0629C76.5683 12.5815 77.7067 13.342 78.6656 14.3008C79.6244 15.2597 80.3849 16.3981 80.9035 17.651C81.4221 18.9039 81.6887 20.2467 81.6881 21.6027Z" fill="white"/>
<path d="M71.3634 79.1444C74.7257 79.1444 77.4515 76.4187 77.4515 73.0564C77.4515 69.694 74.7257 66.9683 71.3634 66.9683C68.0011 66.9683 65.2754 69.694 65.2754 73.0564C65.2754 76.4187 68.0011 79.1444 71.3634 79.1444Z" fill="#0073E6"/>
</svg>

<svg xmlns="http://www.w3.org/2000/svg" fill="none" viewBox="0 0 128 113"><path fill="#E0E3E9" d="M128 112.1H0V32.43h128v79.69ZM2.98 109.14h122.04V35.4H2.98v73.73Z"/><path fill="#fff" d="M126.51 33.91H1.5v76.71H126.5V33.91Z"/><path fill="#EDEFF4" d="M126.51 53.35v-4.7h-17.34V33.9h-4.71v14.73H73.58V33.91h-4.7v14.73H21.24V33.91h-4.71v14.73H1.49v4.71h15.05v18.32H1.49v4.7h15.05V96H1.49v4.71h40.43v9.91h4.7v-9.9h22.25v9.9h4.71v-9.9h52.93V96H73.58V76.38h52.93v-4.71h-17.34V53.35h17.34Zm-57.64 0v5.76H21.25v-5.76h47.62ZM21.25 63.82h47.62v7.85H21.25v-7.85Zm0 32.18V76.38h20.67V96H21.25Zm47.62 0H46.63V76.38h22.24V96Zm35.59-24.33H73.58V53.35h30.88v18.32Z"/><path fill="#0073E6" d="M93.95 22.58c0 12.48-22.59 40.26-22.59 40.26S48.78 35.06 48.78 22.58a22.58 22.58 0 1 1 45.17 0Z"/><path fill="#fff" d="M81.69 21.6a10.32 10.32 0 1 1-20.65 0 10.32 10.32 0 0 1 20.65 0Z"/><path fill="#0073E6" d="M71.36 79.14a6.09 6.09 0 1 0 0-12.17 6.09 6.09 0 0 0 0 12.17Z"/></svg>
